X:1
T:Master John Gatherer's (flutist, Strathdon)
T:Master John Gatherer's (flutist, Strathdon)
T:Alexander Walker
C:Alexander Walker
L:1/8
M:4/4
K:D
V:1 treble 
V:1
 A, | D>EF>D B,/B,/B, B,2 | F<AA>B d>ef>d | e>df>d e>dB>d | A<Fd>F (E2 D) :| f | a>ba>f b<ee>f | %7
 a>ba>f d>ef>d |{e} d>A B/A/G/F/ B>B,B,>A, | D<DA>F E2 D>f | a>baf b>eef | (a>b)(f>a) (e>f)(d>e) | %12
 (B>d) (F>A) (B>B,)B,>A, | D<DA>F E2 D || %14

